.github/logo.svg

<svg width="434" height="127" xmlns="http://www.w3.org/2000/svg">

 <g>
  <title>background</title>
  <rect fill="none" id="canvas_background" height="602" width="802" y="-1" x="-1"/>
 </g>
 <g>
  <title>Layer 1</title>
  <path id="svg_1" fill="#6842c2" d="m72.7588,5.37207l-51.9554,0c-13.8258,0 -20.8034,6.71123 -20.8034,20.00453l0,71.1456c0,1.7425 0.93593,2.8154 2.95235,2.8154l15.70535,0c1.8794,0 3.0893,-1.0729 3.0893,-2.8154l0,-2.7012c0,-6.5896 2.7773,-10.1811 9.6788,-10.8735l41.333,0c15.1651,0 22.0133,-6.5744 22.0133,-20.9404l0,-35.6946c0,-14.3661 -6.8482,-20.94043 -22.0133,-20.94043zm0.2891,50.59333c0,7.7918 -1.7653,9.3973 -11.0332,9.3973l-22.0133,0c-9.2604,0 -15.1727,3.0893 -18.262,9.131l0,-43.882c0,-6.0417 1.4761,-7.6549 8.857,-7.6549l31.4183,0c9.2679,0 11.0332,1.6132 11.0332,9.3974l0,23.6112z"/>
  <path id="svg_2" fill="#6842c2" d="m144.574,44.7038c-11.946,0 -17.052,6.0417 -17.052,16.2456l0,35.8391c0,1.6132 -0.807,2.5491 -2.686,2.5491l-14.229,0c-1.88,0 -2.816,-0.9359 -2.816,-2.5491l0,-65.5072c0,-1.6132 0.936,-2.5567 2.816,-2.5567l11.946,0c1.75,0 2.686,0.9435 2.686,2.5567l0,10.5691c2.283,-8.7201 8.865,-13.1562 20.545,-13.1562l4.832,0c1.742,0 2.678,0.9435 2.678,2.5566l0,10.904c0,1.7425 -0.936,2.549 -2.678,2.549l-6.042,0z"/>
  <path id="svg_3" fill="#6842c2" d="m237.193,80.1397c0,13.2932 -5.905,19.1979 -19.997,19.1979l-34.903,0c-13.963,0 -20.005,-5.9047 -20.005,-19.1979l0,-32.202c0,-13.2856 6.042,-19.1979 20.005,-19.1979l34.903,0c14.092,0 19.997,5.9123 19.997,19.1979l0,32.202zm-19.731,-27.1114c0,-6.9853 -1.339,-8.3245 -9.663,-8.3245l-15.98,0c-8.453,0 -9.8,1.3392 -9.8,8.3245l0,22.0133c0,6.9776 1.347,8.3244 9.8,8.3244l15.98,0c8.324,0 9.663,-1.3468 9.663,-8.3244l0,-22.0133z"/>
  <path id="svg_4" fill="#6842c2" d="m257.06,44.7038l-6.719,0c-1.75,0 -2.686,-0.8065 -2.686,-2.549l0,-10.8735c0,-1.6132 0.936,-2.5567 2.686,-2.5567l6.712,0l0,-8.7201c0.007,-13.29322 6.985,-20.0045 20.811,-20.0045l16.512,0c1.879,0 2.686,0.94354 2.686,2.54907l0,10.87353c0,1.7501 -0.807,2.549 -2.686,2.549l-8.721,0c-7.388,0 -8.864,1.6132 -8.864,7.6548l0,5.0982l17.585,0c1.879,0 2.686,0.9435 2.686,2.5567l0,10.8735c0,1.7425 -0.807,2.549 -2.686,2.549l-17.585,0l0,52.0847c0,1.6132 -0.936,2.5491 -2.816,2.5491l-14.229,0c-1.879,0 -2.686,-0.9359 -2.686,-2.5491l0,-52.0847z"/>
  <path id="svg_5" fill="#6842c2" d="m311.831,44.7038l-6.704,0c-1.742,0 -2.678,-0.8065 -2.678,-2.549l0,-10.8735c0,-1.6132 0.936,-2.5567 2.678,-2.5567l6.719,0l0,-8.7201c-0.015,-13.29322 6.978,-20.0045 20.788,-20.0045l16.512,0c1.88,0 2.686,0.94354 2.686,2.54907l0,10.87353c0,1.7501 -0.806,2.549 -2.686,2.549l-8.727,0c-7.381,0 -8.857,1.6132 -8.857,7.6548l0,5.0982l17.584,0c1.88,0 2.686,0.9435 2.686,2.5567l0,10.8735c0,1.7425 -0.806,2.549 -2.686,2.549l-17.584,0l0,52.0847c0,1.6132 -0.944,2.5491 -2.823,2.5491l-14.23,0c-1.879,0 -2.678,-0.9359 -2.678,-2.5491l0,-52.0847z"/>
  <path id="svg_6" fill="#6842c2" d="m411.831,126.723l-29.265,0c-13.149,0 -18.787,-5.098 -18.787,-17.722l0,-1.339c-0.039,-0.36 0.003,-0.725 0.125,-1.066c0.121,-0.342 0.317,-0.652 0.575,-0.907c0.257,-0.255 0.568,-0.449 0.911,-0.567c0.343,-0.118 0.707,-0.158 1.067,-0.116l13.697,0c1.879,0 2.815,0.944 2.815,2.686l0,0.67c0,2.686 1.484,3.759 4.436,3.759l16.915,0c8.051,0 10.067,-2.009 10.067,-8.857l0,-21.1764c-3.089,6.0417 -8.994,9.131 -18.262,9.131l-13.696,0c-13.963,0 -20.142,-5.9047 -20.142,-19.1979l0,-40.7394c-0.018,-0.3518 0.04,-0.7034 0.171,-1.0306c0.13,-0.3273 0.33,-0.6224 0.585,-0.8653c0.255,-0.2428 0.559,-0.4276 0.893,-0.5417c0.333,-0.1141 0.687,-0.1547 1.037,-0.1191l14.367,0c1.742,0 2.686,0.9435 2.686,2.5567l0,35.6793c0,6.9776 1.476,8.3244 9.8,8.3244l10.204,0c8.857,0 12.35,-3.6295 12.35,-11.0104l0,-32.9933c0,-1.6132 0.936,-2.5567 2.686,-2.5567l14.373,0c0.344,-0.0332 0.691,0.0102 1.016,0.1271c0.325,0.1168 0.62,0.3042 0.863,0.5487c0.244,0.2445 0.431,0.54 0.546,0.8652c0.116,0.3252 0.159,0.6721 0.125,1.0157l0,74.0977c-0.008,14.085 -7.526,21.344 -22.158,21.344z"/>
 </g>
</svg>

<svg width="434" height="127" viewBox="0 0 434 127" fill="none" xmlns="http://www.w3.org/2000/svg">
<path d="M72.7588 5.37207H20.8034C6.9776 5.37207 0 12.0833 0 25.3766V96.5222C0 98.2647 0.935927 99.3376 2.95235 99.3376H18.6577C20.5371 99.3376 21.747 98.2647 21.747 96.5222V93.821C21.747 87.2314 24.5243 83.6399 31.4258 82.9475H72.7588C87.9239 82.9475 94.7721 76.3731 94.7721 62.0071V26.3125C94.7721 11.9464 87.9239 5.37207 72.7588 5.37207ZM73.0479 55.9654C73.0479 63.7572 71.2826 65.3627 62.0147 65.3627H40.0014C30.741 65.3627 24.8287 68.452 21.7394 74.4937V30.6117C21.7394 24.57 23.2155 22.9568 30.5964 22.9568H62.0147C71.2826 22.9568 73.0479 24.57 73.0479 32.3542V55.9654Z" fill="white"/>
<path d="M144.574 44.7038C132.628 44.7038 127.522 50.7455 127.522 60.9494V96.7885C127.522 98.4017 126.715 99.3376 124.836 99.3376H110.607C108.727 99.3376 107.791 98.4017 107.791 96.7885V31.2813C107.791 29.6681 108.727 28.7246 110.607 28.7246H122.553C124.303 28.7246 125.239 29.6681 125.239 31.2813V41.8504C127.522 33.1303 134.104 28.6942 145.784 28.6942H150.616C152.358 28.6942 153.294 29.6377 153.294 31.2508V42.1548C153.294 43.8973 152.358 44.7038 150.616 44.7038H144.574Z" fill="white"/>
<path d="M237.193 80.1397C237.193 93.4329 231.288 99.3376 217.196 99.3376H182.293C168.33 99.3376 162.288 93.4329 162.288 80.1397V47.9377C162.288 34.6521 168.33 28.7398 182.293 28.7398H217.196C231.288 28.7398 237.193 34.6521 237.193 47.9377V80.1397ZM217.462 53.0283C217.462 46.043 216.123 44.7038 207.799 44.7038H191.819C183.366 44.7038 182.019 46.043 182.019 53.0283V75.0416C182.019 82.0192 183.366 83.366 191.819 83.366H207.799C216.123 83.366 217.462 82.0192 217.462 75.0416V53.0283Z" fill="white"/>
<path d="M257.06 44.7038H250.341C248.591 44.7038 247.655 43.8973 247.655 42.1548V31.2813C247.655 29.6681 248.591 28.7246 250.341 28.7246H257.053V20.0045C257.06 6.71128 264.038 0 277.864 0H294.376C296.255 0 297.062 0.943536 297.062 2.54907V13.4226C297.062 15.1727 296.255 15.9716 294.376 15.9716H285.655C278.267 15.9716 276.791 17.5848 276.791 23.6264V28.7246H294.376C296.255 28.7246 297.062 29.6681 297.062 31.2813V42.1548C297.062 43.8973 296.255 44.7038 294.376 44.7038H276.791V96.7885C276.791 98.4017 275.855 99.3376 273.975 99.3376H259.746C257.867 99.3376 257.06 98.4017 257.06 96.7885V44.7038Z" fill="white"/>
<path d="M311.831 44.7038H305.127C303.385 44.7038 302.449 43.8973 302.449 42.1548V31.2813C302.449 29.6681 303.385 28.7246 305.127 28.7246H311.846V20.0045C311.831 6.71128 318.824 0 332.634 0H349.146C351.026 0 351.832 0.943536 351.832 2.54907V13.4226C351.832 15.1727 351.026 15.9716 349.146 15.9716H340.419C333.038 15.9716 331.562 17.5848 331.562 23.6264V28.7246H349.146C351.026 28.7246 351.832 29.6681 351.832 31.2813V42.1548C351.832 43.8973 351.026 44.7038 349.146 44.7038H331.562V96.7885C331.562 98.4017 330.618 99.3376 328.739 99.3376H314.509C312.63 99.3376 311.831 98.4017 311.831 96.7885V44.7038Z" fill="white"/>
<path d="M411.831 126.723H382.566C369.417 126.723 363.779 121.625 363.779 109.001V107.662C363.74 107.302 363.782 106.937 363.904 106.596C364.025 106.254 364.221 105.944 364.479 105.689C364.736 105.434 365.047 105.24 365.39 105.122C365.733 105.004 366.097 104.964 366.457 105.006H380.154C382.033 105.006 382.969 105.95 382.969 107.692V108.362C382.969 111.048 384.453 112.121 387.405 112.121H404.32C412.371 112.121 414.387 110.112 414.387 103.264V82.0876C411.298 88.1293 405.393 91.2186 396.125 91.2186H382.429C368.466 91.2186 362.287 85.3139 362.287 72.0207V31.2813C362.269 30.9295 362.327 30.5779 362.458 30.2507C362.588 29.9234 362.788 29.6283 363.043 29.3854C363.298 29.1426 363.602 28.9578 363.936 28.8437C364.269 28.7296 364.623 28.689 364.973 28.7246H379.34C381.082 28.7246 382.026 29.6681 382.026 31.2813V66.9606C382.026 73.9382 383.502 75.285 391.826 75.285H402.03C410.887 75.285 414.38 71.6555 414.38 64.2746V31.2813C414.38 29.6681 415.316 28.7246 417.066 28.7246H431.439C431.783 28.6914 432.13 28.7348 432.455 28.8517C432.78 28.9685 433.075 29.1559 433.318 29.4004C433.562 29.6449 433.749 29.9404 433.864 30.2656C433.98 30.5908 434.023 30.9377 433.989 31.2813V105.379C433.981 119.464 426.463 126.723 411.831 126.723Z" fill="white"/>
</svg>
